images/arrow.svg

<svg width="12" height="9" viewBox="0 0 12 9" fill="none" xmlns="http://www.w3.org/2000/svg">
<path d="M6.67495 7.71255L11.775 2.41255C12.075 2.11255 12.075 1.51255 11.775 1.21255C11.475 0.912549 10.875 0.912549 10.575 1.21255L6.07495 5.91255L1.57495 1.21255C1.27495 0.912549 0.674951 0.912549 0.374951 1.21255C0.174951 1.31255 0.0749512 1.61255 0.0749512 1.81255C0.0749512 2.01255 0.174951 2.21255 0.374951 2.41255L5.47495 7.71255C5.77495 8.11255 6.37495 8.11255 6.67495 7.71255Z" fill="black"/>
</svg>

<svg width="12" height="9" fill="none" xmlns="http://www.w3.org/2000/svg"><path d="m6.675 7.713 5.1-5.3c.3-.3.3-.9 0-1.2-.3-.3-.9-.3-1.2 0l-4.5 4.7-4.5-4.7c-.3-.3-.9-.3-1.2 0-.2.1-.3.4-.3.6 0 .2.1.4.3.6l5.1 5.3c.3.4.9.4 1.2 0Z" fill="#000"/></svg>
